graphics/GameElements/bomb.svg

<?xml version="1.0" encoding="UTF-8" standalone="no"?>
<!-- Uploaded to: SVG Repo, www.svgrepo.com, Transformed by: SVG Repo Mixer Tools -->

<svg
   width="480"
   height="480"
   viewBox="0 -0.5 10.2 10.2"
   version="1.1"
   class="si-glyph si-glyph-bomb-2"
   fill="#000000"
   stroke="#000000"
   id="svg3"
   sodipodi:docname="bomb.svg"
   inkscape:version="1.4 (86a8ad7, 2024-10-11)"
   xmlns:inkscape="http://www.inkscape.org/namespaces/inkscape"
   xmlns:sodipodi="http://sodipodi.sourceforge.net/DTD/sodipodi-0.dtd"
   xmlns="http://www.w3.org/2000/svg"
   xmlns:svg="http://www.w3.org/2000/svg">
  <defs
     id="defs3" />
  <sodipodi:namedview
     id="namedview3"
     pagecolor="#ffffff"
     bordercolor="#000000"
     borderopacity="0.25"
     inkscape:showpageshadow="2"
     inkscape:pageopacity="0.0"
     inkscape:pagecheckerboard="0"
     inkscape:deskcolor="#d1d1d1"
     inkscape:zoom="0.729375"
     inkscape:cx="332.47644"
     inkscape:cy="154.24165"
     inkscape:window-width="3440"
     inkscape:window-height="1369"
     inkscape:window-x="1912"
     inkscape:window-y="-8"
     inkscape:window-maximized="1"
     inkscape:current-layer="svg3" />
  <g
     id="SVGRepo_bgCarrier"
     stroke-width="0" />
  <g
     id="SVGRepo_tracerCarrier"
     stroke-linecap="round"
     stroke-linejoin="round" />
  <g
     id="SVGRepo_iconCarrier"
     transform="matrix(0.60122108,0,0,0.59758405,-0.15517598,-0.05826906)">
    <title
       id="title1">663</title>
    <defs
       id="defs1" />
    <g
       stroke="none"
       stroke-width="1"
       fill="none"
       fill-rule="evenodd"
       id="g3">
      <g
         transform="translate(1)"
         fill="#dfdfdf"
         id="g2">
        <path
           d="M 15.427,0.016 C 15.334,0.968 14.573,1.271 13.332,1.655 12.748,1.837 12.127,2.034 11.62,2.375 10.73,1.902 10.109,2.012 10.109,2.012 L 8.808,3.628 c 1.279,0.411 2.367,1.217 3.104,2.271 L 13.2,4.296 c 0,0 0.095,-0.688 -0.958,-1.513 0.378,-0.2 0.825,-0.344 1.287,-0.487 C 14.664,1.944 15.854,1.464 15.999,0 Z"
           class="si-glyph-fill"
           id="path1" />
        <path
           d="M 7.857,4.364 C 7.261,4.165 6.627,4.052 5.962,4.052 c -3.293,0 -5.963,2.67 -5.963,5.964 0,3.294 2.67,5.963 5.963,5.963 3.294,0 5.963,-2.669 5.963,-5.963 0,-1.228 -0.371,-2.366 -1.006,-3.315 C 10.193,5.616 9.119,4.787 7.857,4.364 Z M 6.299,6.077 c -2.707,0 -4.162,1.509 -4.162,3.966 H 1.031 c 0,-2.635 2.212,-4.81 5.038,-5.079 -0.001,0 0.388,1.113 0.23,1.113 z"
           class="si-glyph-fill"
           id="path2" />
      </g>
    </g>
  </g>
</svg>

<!DOCTYPE svg PUBLIC "-//W3C//DTD SVG 1.1//EN" "http://www.w3.org/Graphics/SVG/1.1/DTD/svg11.dtd">
<!-- Uploaded to: SVG Repo, www.svgrepo.com, Transformed by: SVG Repo Mixer Tools -->
<svg width="800px" height="800px" viewBox="0 -0.5 17 17" version="1.1" xmlns="http://www.w3.org/2000/svg" xmlns:xlink="http://www.w3.org/1999/xlink" class="si-glyph si-glyph-bomb-2" fill="#000000" stroke="#000000">
<g id="SVGRepo_bgCarrier" stroke-width="0"/>
<g id="SVGRepo_tracerCarrier" stroke-linecap="round" stroke-linejoin="round"/>
<g id="SVGRepo_iconCarrier"> <title>663</title> <defs> </defs> <g stroke="none" stroke-width="1" fill="none" fill-rule="evenodd"> <g transform="translate(1.000000, 0.000000)" fill="#DFDFDF"> <path d="M15.427,0.016 C15.334,0.968 14.573,1.271 13.332,1.655 C12.748,1.837 12.127,2.034 11.62,2.375 C10.73,1.902 10.109,2.012 10.109,2.012 L8.808,3.628 C10.087,4.039 11.175,4.845 11.912,5.899 L13.2,4.296 C13.2,4.296 13.295,3.608 12.242,2.783 C12.62,2.583 13.067,2.439 13.529,2.296 C14.664,1.944 15.854,1.464 15.999,9.09494702e-13 L15.427,0.016 L15.427,0.016 Z" class="si-glyph-fill"> </path> <path d="M7.857,4.364 C7.261,4.165 6.627,4.052 5.962,4.052 C2.669,4.052 -0.001,6.722 -0.001,10.016 C-0.001,13.31 2.669,15.979 5.962,15.979 C9.256,15.979 11.925,13.31 11.925,10.016 C11.925,8.788 11.554,7.65 10.919,6.701 C10.193,5.616 9.119,4.787 7.857,4.364 L7.857,4.364 Z M6.299,6.077 C3.592,6.077 2.137,7.586 2.137,10.043 L1.031,10.043 C1.031,7.408 3.243,5.233 6.069,4.964 C6.068,4.964 6.457,6.077 6.299,6.077 L6.299,6.077 Z" class="si-glyph-fill"> </path> </g> </g> </g>
</svg>
